X:1
T:Title
%%score { ( 1 3 ) | ( 2 4 ) }
L:1/8
M:4/4
K:Bb
V:1 treble nm="Grand Piano"
V:3 treble 
V:2 bass 
V:4 bass 
V:1
 z4 z2[Q:1/4=100] [DF]2 | [B,D]2 [DF]2 [DB]3 [Ec] | B2 A2 A2 B2 | c3 =B c2 F2 | d6 z2 | %5
 [F,B,D]2 [B,DF]2 [DB]3 [Ec] | B2 A2 A2 B2 | c3 =B c2 d2 | [DB]6 z2 | z4 d2 z2 | %10
 c2 d>c [Ec]2 [DB]2 | [B,GB]2 [B,FA]>[B,EG] [B,DF]2 [B,DB]2 |[M:3/4] c4 z2 |[M:4/4] z4 d2 z2 | %14
 c2 d>c [Ec]2 [DB]2 | [B,GB]2 [B,FA]>[B,EG] [B,DF]2 [B,DB]2 |[M:3/4] c4 z2 |[M:1/4] z2 | %18
[M:4/4] [Beg]2 [Bdf]2 [FBd]2 [DB]2 | [Ec]3 [=E_d] [F=d]2 [DB]2 | [Beg]2 [Bdf]2 [FBd]2 [DB]2 | %21
[M:3/4] [Ec]3 [Fd] [DB]2 |] %22
V:2
 z4 z2 [B,,B,]2 | [B,,F,]2 [B,,B,]2 [B,,F,]3 [B,,F,] | [F,D]2 [F,C]2 [F,C]2 [F,D]2 | %3
 [F,A,E]3 [F,A,D] [F,A,E]2 [F,A,E]2 | z2 F4 B,,2 | B,,2 B,,2 [B,,F,]3 [B,,F,] | %6
 [F,D]2 [F,C]2 [F,C]2 [F,D]2 | [F,A,E]3 [F,A,D] [F,A,E]2 [F,A,F]2 | [B,,B,]6 z2 | %9
 [B,F]2 [B,G]>[B,F] F-[F,F][K:bass] [F,A,E]2 | [F,A,E]2 [F,A,F]>[F,A,E] [B,,B,][B,,B,] [B,,B,]2 | %11
 E,2 E,>E, B,,2 B,,2 |[M:3/4] E4 z2 |[M:4/4][K:treble] z4[K:bass] F2 z2 | %14
 [F,A,E]2 [F,A,F]>[F,A,E] [B,,B,][B,,B,] [B,,B,]2 | E,2 E,>E, B,,2 B,,2 |[M:3/4] E4 z2 | %17
[M:1/4][K:treble] B2 |[M:4/4][K:bass] [B,,B,]4 [B,,B,]2 [B,,B,]2 | %19
 [F,A,]3 [F,A,] [B,,B,]2 [B,,B,]2 | [B,,B,]4 [B,,B,]2 [B,,B,]2 |[M:3/4] [F,A,]3 [F,A,] [B,,B,]2 |] %22
V:3
 x8 | x8 | x8 | x8 | D2 z2 z2 [B,DF]2 | x8 | x8 | x8 | x8 | d2 e>d z A, c2 | x8 | x8 | %12
[M:3/4] z A, A,d [DB]2 |[M:4/4] d2 e>d z A, c2 | x8 | x8 |[M:3/4] z A, A,d [B,DB]2 |[M:1/4] x2 | %18
[M:4/4] x8 | x8 | x8 |[M:3/4] x6 |] %22
V:4
 x8 | x8 | x8 | x8 | [B,,B,]6 z2 | x8 | x8 | x8 | x8 | z4 .[F,A,]2[K:bass] z2 | x8 | x8 | %12
[M:3/4] z F, F,[F,A,F] [B,,B,]2 |[M:4/4][K:treble] [B,F]2 [B,G]>[B,F][K:bass] [F,A,]F, [F,A,E]2 | %14
 x8 | x8 |[M:3/4] z F, F,[F,A,F] B,,2 |[M:1/4][K:treble] x2 |[M:4/4][K:bass] x8 | x8 | x8 | %21
[M:3/4] x6 |] %22

